modules/hawcons-stroke/icons/icon-22-volleyball.svg

<?xml version="1.0" encoding="UTF-8" standalone="no"?>
<svg width="32px" height="32px" viewBox="0 0 32 32" version="1.1" xmlns="http://www.w3.org/2000/svg" xmlns:xlink="http://www.w3.org/1999/xlink" xmlns:sketch="http://www.bohemiancoding.com/sketch/ns">
    <!-- Generator: Sketch 3.0.3 (7891) - http://www.bohemiancoding.com/sketch -->
    <title>icon 22 volleyball</title>
    <desc>Created with Sketch.</desc>
    <defs></defs>
    <g id="Page-1" stroke="none" stroke-width="1" fill="none" fill-rule="evenodd" sketch:type="MSPage">
        <g id="icon-22-volleyball" sketch:type="MSArtboardGroup" fill="#929292">
            <path d="M7.78698529,8.99414597 C7.68606115,12.9648396 8.89147807,16.9838277 11.4641737,20.354589 C10.0426206,21.3888845 8.47295379,22.1815442 6.82215337,22.7146208 C6.88400268,22.8107378 6.44831298,22.1160127 6.21227352,21.6449522 C5.43656883,20.0968896 5,18.3494278 5,16.5 C5,13.9382768 5.83761093,11.5721882 7.25389802,9.66066882 C7.48727254,9.34569037 7.85688587,8.91307651 7.78698529,8.99414597 L7.78698529,8.99414597 Z M8.88195368,7.88498775 C8.50346368,11.9872646 9.60947437,16.22519 12.2765511,19.7236176 C13.6816189,18.5598001 14.9150352,17.1423113 15.9031634,15.490882 C14.1142604,12.2789029 13.4445036,8.73835195 13.7716091,5.32559864 C13.8474479,5.30714592 13.4531523,5.40441741 13.1856846,5.4847821 C11.8584757,5.88356211 10.6322398,6.515656 9.55462729,7.33341361 C9.18495324,7.61394465 8.75198005,8.00000669 8.88195368,7.88498775 L8.88195368,7.88498775 Z M26.8114111,11.4025897 C23.3541975,9.18107219 19.1321168,8.13074654 14.7798484,8.69601999 C14.6557363,7.50188148 14.6637481,6.30444495 14.798165,5.12505258 C14.7143459,5.13748613 15.2180516,5.06552942 15.5599413,5.03786932 C15.8699823,5.01278589 16.183498,5 16.5,5 C20.6605669,5 24.3050905,7.20944379 26.324265,10.5190255 C26.5360309,10.8661261 26.8430699,11.4665089 26.8114111,11.4025897 L26.8114111,11.4025897 Z M27.5052298,13.1526241 C24.0445628,10.462206 19.560138,9.11423639 14.9182196,9.71528005 C15.2218788,11.5241653 15.8343162,13.3114009 16.7755907,15.002126 C20.9347846,15.0663383 24.7419251,16.5815314 27.7131506,19.0638439 C27.6944692,19.1458897 27.8134714,18.6060367 27.8683194,18.2459269 C27.9550329,17.6766012 28,17.0935519 28,16.5 C28,15.5484882 27.8844403,14.6239667 27.6665899,13.7397046 C27.565081,13.3276766 27.4415152,12.9428769 27.5052298,13.1526241 L27.5052298,13.1526241 Z M11.3245897,26.7724078 C16.1063251,25.3890009 20.2193834,21.926851 22.2686848,17.0364943 C20.5506503,16.3953061 18.6970515,16.0322362 16.7626521,16.0020482 C14.559328,19.685796 11.2054002,22.2723749 7.42713423,23.5671826 C7.38415075,23.512079 7.58627683,23.7703512 7.73769427,23.948307 C8.59236619,24.9527745 9.61669405,25.808427 10.7663691,26.4709558 C11.1444365,26.6888266 11.5262787,26.8742222 11.3245897,26.7724078 L11.3245897,26.7724078 Z M12.7707981,27.3818684 C17.3443845,25.7165716 21.2159324,22.2169683 23.2206204,17.4262238 C24.7578167,18.1126185 26.1707462,19.0272482 27.4163332,20.1270371 C27.4561273,20.0072086 27.3519429,20.3267283 27.2475015,20.6003228 C25.5958905,24.9268791 21.4068282,28 16.5,28 C15.2815299,28 14.1073197,27.8105006 13.0052331,27.4593656 C12.8659015,27.4149733 12.7105558,27.3612283 12.7707981,27.3818684 L12.7707981,27.3818684 Z M29,16.5 C29,9.59644063 23.4035594,4 16.5,4 C9.59644063,4 4,9.59644063 4,16.5 C4,23.4035594 9.59644063,29 16.5,29 C23.4035594,29 29,23.4035594 29,16.5 L29,16.5 Z" id="volleyball" sketch:type="MSShapeGroup"></path>
        </g>
    </g>
</svg>

<svg width="32" height="32" viewBox="0 0 32 32" xmlns="http://www.w3.org/2000/svg"><path d="M7.787 8.994c-.1 3.97 1.104 7.99 3.677 11.36a16.518 16.518 0 0 1-4.642 2.36c.062.097-.374-.598-.61-1.069A11.452 11.452 0 0 1 5 16.5c0-2.562.838-4.928 2.254-6.84.233-.314.603-.747.533-.666zm1.095-1.109a16.917 16.917 0 0 0 3.395 11.839 16.454 16.454 0 0 0 3.626-4.233 17.416 17.416 0 0 1-2.131-10.165c.075-.019-.319.078-.586.159a11.463 11.463 0 0 0-3.631 1.848c-.37.28-.803.667-.673.552zm17.93 3.518A17.932 17.932 0 0 0 14.78 8.696a16.486 16.486 0 0 1 .018-3.57c-.084.011.42-.06.762-.088a11.493 11.493 0 0 1 10.764 5.481c.212.347.52.948.487.884zm.693 1.75a16.927 16.927 0 0 0-12.587-3.438 16.453 16.453 0 0 0 1.858 5.287c4.159.064 7.966 1.58 10.937 4.062-.019.082.1-.458.155-.818a11.59 11.59 0 0 0-.201-4.506c-.102-.412-.225-.797-.162-.587zm-16.18 13.62c4.781-1.384 8.894-4.846 10.944-9.737a16.453 16.453 0 0 0-5.506-1.034 17.43 17.43 0 0 1-9.336 7.565c-.043-.055.16.203.31.381a11.554 11.554 0 0 0 3.03 2.523c.377.218.76.403.558.301zm1.446.609a17.962 17.962 0 0 0 10.45-9.956 16.515 16.515 0 0 1 4.195 2.701c.04-.12-.064.2-.168.473C25.596 24.927 21.407 28 16.5 28c-1.218 0-2.393-.19-3.495-.54-.14-.045-.294-.099-.234-.078zM29 16.5C29 9.596 23.404 4 16.5 4S4 9.596 4 16.5 9.596 29 16.5 29 29 23.404 29 16.5z" fill="#929292" fill-rule="evenodd"/></svg>
